X: 23792
T: Little Jack's
R: jig
M: 6/8
K: Gmajor
|:D|
GFG A2 F|GBd d^cd|g2 e d2 G|FAG AFD|
GFG AGF|GBd d^cd|gdg b2 a|g3 g2:|
|:e|
dBd g2 f|ece a2 g|faf d2 a|gbg d2 e|
dBd g2 d|ece a2 e|fed c’fa|g3 g2:|

